kora-light-panel/panel/24/fcitx-kkc-panel.svg

<svg xmlns="http://www.w3.org/2000/svg" width="100%" height="100%" viewBox="-4 -4 24 24">
 <defs>
  <style id="current-color-scheme" type="text/css">
   .ColorScheme-Text { color:#444444; } .ColorScheme-Highlight { color:#4285f4; } .ColorScheme-NeutralText { color:#ff9800; } .ColorScheme-PositiveText { color:#4caf50; } .ColorScheme-NegativeText { color:#f44336; }
  </style>
 </defs>
 <path style="fill:currentColor" class="ColorScheme-Text" d="m12 6c.583 0 1.111.154 1.479.521.367.368.521.896.521 1.479h-1c0-.417-.096-.639-.229-.771-.132-.133-.354-.229-.771-.229s-.639.096-.771.229c-.133.132-.229.354-.229.771v2c0 .417.096.639.229.771.132.133.354.229.771.229s.639-.096.771-.229c.133-.132.229-.354.229-.771h1c0 .583-.154 1.111-.521 1.479-.368.367-.896.521-1.479.521s-1.111-.154-1.479-.521c-.367-.368-.521-.896-.521-1.479v-2c0-.583.154-1.111.521-1.479.368-.367.896-.521 1.479-.521zm-10-2h1v4.293l2.293-2.293h.707v-2h1v4.293l2.293-2.293h1.414l-3 3 3 3h-1.414l-2.293-2.293v2.293h-1.707l-2.293-2.293v2.293h-1zm4 2.707-2.293 2.293 2.293 2.293z" fill="#444444"/>
</svg>

<svg xmlns="http://www.w3.org/2000/svg" width="24" height="24" version="1.1">
 <defs>
  <style id="current-color-scheme" type="text/css">
   .ColorScheme-Text { color:#444444; } .ColorScheme-Highlight { color:#4285f4; } .ColorScheme-NeutralText { color:#ff9800; } .ColorScheme-PositiveText { color:#4caf50; } .ColorScheme-NegativeText { color:#f44336; }
  </style>
 </defs>
 <g transform="matrix(1,0,0,1,4,4)">
  <path class="ColorScheme-Text" d="M 2,0 C 0.892,0 0,0.892 0,2 V 14 C 0,15.108 0.892,16 2,16 H 14 C 15.108,16 16,15.108 16,14 V 2 C 16,0.892 15.108,0 14,0 Z M 2,4 H 3 V 8.293 L 5.293,6 H 6 V 4 H 7 V 8.293 L 9.293,6 H 10.707 L 7.707,9 10.707,12 H 9.293 L 7,9.707 V 12 H 5.293 L 3,9.707 V 12 H 2 Z M 12,6 C 12.583,6 13.111,6.1536 13.479,6.5215 13.846,6.8893 14,7.4167 14,8 H 13 C 13,7.5833 12.904,7.3607 12.771,7.2285 12.639,7.0964 12.417,7 12,7 11.583,7 11.361,7.0964 11.229,7.2285 11.096,7.3607 11,7.5833 11,8 V 10 C 11,10.417 11.096,10.639 11.229,10.771 11.361,10.904 11.583,11 12,11 12.417,11 12.639,10.904 12.771,10.771 12.904,10.639 13,10.417 13,10 H 14 C 14,10.583 13.846,11.111 13.479,11.479 13.111,11.846 12.583,12 12,12 11.417,12 10.889,11.846 10.521,11.479 10.154,11.111 10,10.583 10,10 V 8 C 10,7.4167 10.154,6.8893 10.521,6.5215 10.889,6.1536 11.417,6 12,6 Z M 6,6.707 3.707,9 6,11.293 Z" style="fill:currentColor"/>
 </g>
</svg>
